Pods/ProtonCore-UIFoundations/libraries/UIFoundations/Sources/Assets.xcassets/Images/IconSet/ic-paper-clip.imageset/ic-paper-clip.svg

<svg width="24" height="24" viewBox="0 0 24 24" fill="none" xmlns="http://www.w3.org/2000/svg">
<path fill-rule="evenodd" clip-rule="evenodd" d="M18.31 4.19303C16.8335 2.77006 14.4275 2.77006 12.951 4.19303L5.58016 11.2967C3.30661 13.4878 3.30661 17.0273 5.58016 19.2185C7.87081 21.4261 11.5968 21.4261 13.8875 19.2185L20.3738 12.9672C20.697 12.6558 21.2114 12.6654 21.5227 12.9888C21.834 13.3121 21.8244 13.8267 21.5012 14.1382L15.0148 20.3894C12.0949 23.2035 7.37278 23.2035 4.45281 20.3894C1.51573 17.5588 1.51573 12.9564 4.45281 10.1258L11.8236 3.02212C13.9295 0.992628 17.3315 0.992629 19.4373 3.02212C21.5603 5.06808 21.5603 8.3983 19.4373 10.4443L12.0665 17.5479C10.7748 18.7928 8.6928 18.7928 7.40114 17.5479C6.09239 16.2866 6.09239 14.2286 7.40114 12.9672L13.8875 6.71602C14.2107 6.40456 14.725 6.41418 15.0363 6.73752C15.3476 7.06086 15.338 7.57548 15.0148 7.88694L8.5285 14.1382C7.88327 14.76 7.88327 15.7552 8.5285 16.377C9.19083 17.0153 10.2768 17.0153 10.9391 16.377L18.31 9.27334C19.7694 7.86685 19.7694 5.59953 18.31 4.19303Z" fill="#0C0C14"/>
</svg>

<svg xmlns="http://www.w3.org/2000/svg" width="24" height="24" viewBox="0 0 24 24">
  <g class="ic-paper-clip">
    <path fill-rule="evenodd" d="M18.31 4.193c-1.476-1.423-3.882-1.423-5.359 0l-7.37 7.104c-2.274 2.19-2.274 5.73 0 7.921 2.29 2.208 6.016 2.208 8.306 0l6.487-6.25a.812.812 0 1 1 1.127 1.17l-6.486 6.251c-2.92 2.814-7.642 2.814-10.562 0a7.08 7.08 0 0 1 0-10.263l7.37-7.104c2.107-2.03 5.508-2.03 7.614 0a5.12 5.12 0 0 1 0 7.422l-7.37 7.104a3.38 3.38 0 0 1-4.666 0 3.163 3.163 0 0 1 0-4.58l6.486-6.252a.812.812 0 1 1 1.128 1.17l-6.487 6.252a1.537 1.537 0 0 0 0 2.239 1.757 1.757 0 0 0 2.411 0l7.371-7.104a3.495 3.495 0 0 0 0-5.08Z" class="Icon"/>
  </g>
</svg>
